X:1
T:Det Syvende Bud
T:Det Syvende Bud
T:Ole Andersen Mærli, Sørum
C:Ole Andersen Mærli, Sørum
L:1/8
M:6/8
K:Bb
V:1 treble nm="Piano" snm="Pno."
V:1
"Dm" F2 G A2 d |"Am" c2 d d2 c |"Gm" B2 B"A7" A2 G | F2 =E"Dm" D3 | F2 G A2 d |"Am" c2 d d2 c | %6
w: Nu vil vi med|Gud be- gyn- de|Til at fø- re|sang- vis ud,|Paa hvad Maa- der|Fol- ket syn- de|
"Gm" B2 B"A7" A2 G | F2 =E"Dm" D3 |"Dm" (f>=e)d"A" ^c2 d |"Dm" f2 f"A" (=e/^c/)"Dm" d2 | %10
w: Mod det sy- vend`|Her- rens Bud.|Ty- * ve- ri, des|Gud og naa- * de!|
"Gm" d2 B G2 A |"Cm" B2 B"D" (A/^F/)"Gm" G2 |] %12
w: Dri- ves her i|man- ge Maa- * de.|

